cmd/conneroh/_static/dist/svg/shower-head.svg

<svg height="18" viewBox="0 0 18 18" width="18" xmlns="http://www.w3.org/2000/svg"><path d="m4 4 2.5 2.5m7 0c-1.9375-1.901042-5.046875-1.885417-6.963542.036458-1.921875 1.916667-1.9375 5.026042-.036458 6.963542m8.5-8.5-10 10m9 2v.010417m-4-1.010417v.010417m3-3.010417v.010417m3-3.010417v.010417m-5 9.989583v.010417m6-6.010417v.010417m3-3.010417v.010417" fill="none" stroke="#fff" stroke-linecap="round" stroke-linejoin="round" stroke-width="2" transform="scale(.75)"/></svg>

<svg xmlns="http://www.w3.org/2000/svg" width="24" height="24" fill="none" stroke="white" stroke-linecap="round" stroke-linejoin="round" stroke-width="2">
    <path d="m4 4 2.5 2.5m7 0a4.95 4.95 0 0 0-7 7M15 5 5 15m9 2v.01M10 16v.01M13 13v.01M16 10v.01M11 20v.01M17 14v.01M20 11v.01"/>
</svg>
